Newaita-dark/apps/22/datovka.svg

<svg height="22" viewBox="0 0 22 22" width="22" xmlns="http://www.w3.org/2000/svg" xmlns:xlink="http://www.w3.org/1999/xlink"><linearGradient id="a" gradientUnits="userSpaceOnUse" x1="10.9151136" x2="10.9151136" y1="19.27333715" y2="20.18293042919"><stop offset="0" stop-opacity=".27451"/><stop offset="1" stop-opacity="0"/></linearGradient><linearGradient id="b"><stop offset="0" stop-opacity=".313726"/><stop offset=".222222" stop-opacity=".27451"/><stop offset="1" stop-opacity="0"/></linearGradient><radialGradient id="c" cx="450.908936" cy="189.579361" gradientTransform="matrix(.00000012 -.0537161 -.0966889 -.00000007 35.839821 43.721791)" gradientUnits="userSpaceOnUse" r="21.166656" xlink:href="#b"/><radialGradient id="d" cx="450.908936" cy="189.579361" gradientTransform="matrix(-.00000012 .0537161 .0966889 .00000007 -14.009609 -5.175142)" gradientUnits="userSpaceOnUse" r="21.166656" xlink:href="#b"/><radialGradient id="e" cx="450.908936" cy="189.579361" gradientTransform="matrix(-.00000012 -.0537161 .0966889 -.00000007 -14.009609 43.721791)" gradientUnits="userSpaceOnUse" r="21.166656" xlink:href="#b"/><radialGradient id="f" cx="450.908936" cy="189.579361" gradientTransform="matrix(.00000012 .0537161 -.0966889 .00000007 35.839819 -5.175142)" gradientUnits="userSpaceOnUse" r="21.166656" xlink:href="#b"/><linearGradient id="g" gradientUnits="userSpaceOnUse" x1="7.27674417081" x2="7.27674417081" y1="19.27333515" y2="1.99106765838"><stop offset="0" stop-color="#2979ff"/><stop offset="1" stop-color="#42a5f5"/></linearGradient><linearGradient id="h" gradientUnits="userSpaceOnUse" x1="10.915104" x2="10.91510469356" y1="19.27332401286" y2="1.99107548985"><stop offset="0" stop-color="#ffa726"/><stop offset="1" stop-color="#ffb74d"/></linearGradient><path d="m4.09375 19.207031h13.644531v1.007813h-13.644531zm0 0" fill="url(#a)"/><path d="m17.738281 19.273438h1.816407v-.910157h-1.816407zm0 0" fill="url(#c)"/><path d="m4.09375 19.273438h-1.820312v.910156h1.820312zm0 0" fill="url(#d)"/><path d="m4.09375 19.273438h-1.820312v-.910157h1.820312zm0 0" fill="url(#e)"/><path d="m17.738281 19.273438h1.816407v.910156h-1.816407zm0 0" fill="url(#f)"/><path d="m3.183594 1.992188h15.464844c.5 0 .90625.40625.90625.910156v15.460937c0 .503907-.40625.910157-.90625.910157h-15.464844c-.503906 0-.910156-.40625-.910156-.910157v-15.460937c0-.503906.40625-.910156.910156-.910156zm0 0" fill="url(#g)"/><path d="m9.195312 10.632812-6.820312 6.820313h-.101562v.910156c0 .503907.40625.910157.910156.910157h15.464844c.503906 0 .90625-.40625.90625-.910157v-.910156h-.097657l-6.820312-6.820313-1.078125 1.074219c-.355469.359375-.929688.359375-1.285156 0zm0 0" fill-opacity=".078431"/><path d="m3.183594 2.058594c-.503906 0-.910156.402344-.910156.90625v.117187c0-.503906.40625-.914062.910156-.910156h15.464844c.503906-.003906.90625.40625.90625.910156v-.117187c0-.503906-.402344-.90625-.90625-.90625zm0 0" fill="#e6e6e6" fill-opacity=".392157"/><path d="m3.183594 19.207031c-.503906 0-.910156-.40625-.910156-.910156v-.113281c0 .503906.40625.910156.910156.910156h15.464844c.503906 0 .90625-.40625.90625-.910156v.113281c0 .503906-.402344.910156-.90625.910156zm0 0" fill-opacity=".196078"/><path d="m3.183594 1.992188c-.503906 0-.910156.40625-.910156.910156v.90625h.101562l7.898438 7.898437c.355468.359375.929687.359375 1.285156 0l7.898437-7.898437h.097657v-.90625c0-.503906-.402344-.910156-.90625-.910156zm0 0" fill="#fff" fill-opacity=".117647"/><path d="m74.083834-168.640791h359.874725c11.635253 0 21.088895 9.453643 21.088895 21.179796v359.783824c0 11.726153-9.453642 21.179796-21.088895 21.179796h-359.874725c-11.726152 0-21.179795-9.453643-21.179795-21.179796v-359.783824c0-11.726153 9.453643-21.179796 21.179795-21.179796zm0 0" fill="none" stroke="#212121" stroke-linecap="round" stroke-width="3" transform="matrix(.0429729 0 0 .0429729 0 9.239163)"/><path d="m8.414062 4.921875c-.34375 0-.636718.246094-.695312.582031l-.6875 3.765625h3.007812l.171876-.957031c.085937-.5.710937-.789062 1.058593-.488281l1.699219 2.347656c.136719.117187.191406.304687.152344.503906-.039063.183594-.15625.359375-.324219.46875l-2.527344 2.34375c-.453125.300781-.976562.015625-.886719-.484375l.167969-.957031h-3.023437l-.628906 3.460937c-.078126.433594.253906.835938.695312.835938h3.671875c3.152344 0 5.710937-2.558594 5.710937-5.710938 0-3.152343-2.558593-5.710937-5.710937-5.710937zm0 0" fill="url(#h)"/><path d="m8.414062 4.921875c-.34375 0-.636718.246094-.695312.582031l-.6875 3.765625h.058594l.628906-3.460937c.058594-.335938.351562-.582032.695312-.582032h1.851563c3.101563 0 5.628906 2.476563 5.707031 5.558594.003906-.050781.003906-.101562.003906-.152344 0-3.152343-2.558593-5.710937-5.710937-5.710937zm4.699219 5.785156c-.042969.175781-.160156.332031-.316406.4375l-2.527344 2.34375c-.371093.246094-.785156.101563-.878906-.230469l-.007813.050782c-.089843.5.433594.785156.886719.484375l2.527344-2.34375c.167969-.109375.285156-.285157.324219-.46875.019531-.097657.015625-.1875-.007813-.273438zm-6.585937 1.339844-.628906 3.460937c-.019532.097657-.015626.191407.003906.277344l.625-3.433594h2.96875l.054687-.304687zm0 0" fill="#fff" fill-opacity=".392157"/><path d="m10.929688 7.703125c-.316407 0-.65625.25-.71875.609375l-.171876.957031h-2.921874l-.085938.453125h3.007812l.171876-.957031c.085937-.5.710937-.785156 1.058593-.484375l1.699219 2.34375c.050781.046875.089844.101562.117188.164062.015624-.039062.027343-.078124.035156-.113281.039062-.199219-.015625-.386719-.152344-.503906l-1.699219-2.347656c-.097656-.082031-.21875-.121094-.339843-.121094zm5.042968 3.15625c-.121094 3.046875-2.632812 5.484375-5.707031 5.484375h-3.671875c-.320312 0-.585938-.214844-.675781-.496094l-.019531.117188c-.078126.433594.253906.832031.695312.832031h3.671875c3.152344 0 5.710937-2.558594 5.710937-5.710937 0-.074219-.003906-.152344-.003906-.226563zm-6.503906 1.644531-.085938.5c-.019531.113282-.007812.214844.027344.304688l.140625-.804688zm0 0" fill-opacity=".235294"/><path d="m740.029584 432.886386c-30.233335 0-56.000381 21.64432-61.153791 51.190533l-60.46667 331.192442h264.541681l15.116667-84.172353c7.558334-43.97576 62.528034-69.399246 93.10493-42.945078l149.448871 206.479935c12.024622 10.306819 16.834471 26.797729 13.398864 44.319321-3.435606 16.147349-13.742425 31.607577-28.515531 41.227275l-222.283724 206.136374c-39.853033 26.454168-85.890156 1.374243-77.988262-42.601517l14.773107-84.172353h-265.915923l-55.313261 304.394713c-6.871212 38.135229 22.331441 73.521973 61.153792 73.521973h322.946986c277.253424 0 502.285633-225.032208 502.285633-502.285632s-225.032209-502.285633-502.285633-502.285633zm0 0" fill="none" stroke="#212121" stroke-linecap="round" stroke-linejoin="round" stroke-width="11.338583" transform="scale(.0113699)"/></svg>

<?xml version="1.0" encoding="UTF-8"?>
<svg xmlns="http://www.w3.org/2000/svg" xmlns:xlink="http://www.w3.org/1999/xlink" width="22px" height="22px" viewBox="0 0 22 22" version="1.1">
<defs>
<linearGradient id="linear0" gradientUnits="userSpaceOnUse" x1="254" y1="233.5" x2="254" y2="254.666672" gradientTransform="matrix(0.0429729,0,0,0.0429729,-0.00000262285,9.239165)">
<stop offset="0" style="stop-color:rgb(0%,0%,0%);stop-opacity:0.27451;"/>
<stop offset="1" style="stop-color:rgb(0%,0%,0%);stop-opacity:0;"/>
</linearGradient>
<radialGradient id="radial0" gradientUnits="userSpaceOnUse" cx="450.908936" cy="189.579361" fx="450.908936" fy="189.579361" r="21.166656" gradientTransform="matrix(0.000000119742,-0.0537161,-0.0966889,-0.0000000698078,35.839821,43.721791)">
<stop offset="0" style="stop-color:rgb(0%,0%,0%);stop-opacity:0.313726;"/>
<stop offset="0.222222" style="stop-color:rgb(0%,0%,0%);stop-opacity:0.27451;"/>
<stop offset="1" style="stop-color:rgb(0%,0%,0%);stop-opacity:0;"/>
</radialGradient>
<radialGradient id="radial1" gradientUnits="userSpaceOnUse" cx="450.908936" cy="189.579361" fx="450.908936" fy="189.579361" r="21.166656" gradientTransform="matrix(-0.000000119742,0.0537161,0.0966889,0.0000000698078,-14.009609,-5.175142)">
<stop offset="0" style="stop-color:rgb(0%,0%,0%);stop-opacity:0.313726;"/>
<stop offset="0.222222" style="stop-color:rgb(0%,0%,0%);stop-opacity:0.27451;"/>
<stop offset="1" style="stop-color:rgb(0%,0%,0%);stop-opacity:0;"/>
</radialGradient>
<radialGradient id="radial2" gradientUnits="userSpaceOnUse" cx="450.908936" cy="189.579361" fx="450.908936" fy="189.579361" r="21.166656" gradientTransform="matrix(-0.000000119742,-0.0537161,0.0966889,-0.0000000698078,-14.009609,43.721791)">
<stop offset="0" style="stop-color:rgb(0%,0%,0%);stop-opacity:0.313726;"/>
<stop offset="0.222222" style="stop-color:rgb(0%,0%,0%);stop-opacity:0.27451;"/>
<stop offset="1" style="stop-color:rgb(0%,0%,0%);stop-opacity:0;"/>
</radialGradient>
<radialGradient id="radial3" gradientUnits="userSpaceOnUse" cx="450.908936" cy="189.579361" fx="450.908936" fy="189.579361" r="21.166656" gradientTransform="matrix(0.000000119742,0.0537161,-0.0966889,0.0000000698078,35.839819,-5.175142)">
<stop offset="0" style="stop-color:rgb(0%,0%,0%);stop-opacity:0.313726;"/>
<stop offset="0.222222" style="stop-color:rgb(0%,0%,0%);stop-opacity:0.27451;"/>
<stop offset="1" style="stop-color:rgb(0%,0%,0%);stop-opacity:0;"/>
</radialGradient>
<linearGradient id="linear1" gradientUnits="userSpaceOnUse" x1="169.333328" y1="233.5" x2="169.333328" y2="-168.666656" gradientTransform="matrix(0.0429729,0,0,0.0429729,0,9.239163)">
<stop offset="0" style="stop-color:rgb(16.078432%,47.450981%,100%);stop-opacity:1;"/>
<stop offset="1" style="stop-color:rgb(25.882354%,64.705884%,96.078432%);stop-opacity:1;"/>
</linearGradient>
<linearGradient id="linear2" gradientUnits="userSpaceOnUse" x1="960" y1="1695.118164" x2="960.000061" y2="175.118118" gradientTransform="matrix(0.0113699,0,0,0.0113699,0,0)">
<stop offset="0" style="stop-color:rgb(100%,65.490198%,14.901961%);stop-opacity:1;"/>
<stop offset="1" style="stop-color:rgb(100%,71.764708%,30.19608%);stop-opacity:1;"/>
</linearGradient>
</defs>
<g id="surface1">
<path style=" stroke:none;fill-rule:nonzero;fill:url(#linear0);" d="M 4.09375 19.207031 L 17.738281 19.207031 L 17.738281 20.214844 L 4.09375 20.214844 Z M 4.09375 19.207031 "/>
<path style=" stroke:none;fill-rule:nonzero;fill:url(#radial0);" d="M 17.738281 19.273438 L 19.554688 19.273438 L 19.554688 18.363281 L 17.738281 18.363281 Z M 17.738281 19.273438 "/>
<path style=" stroke:none;fill-rule:nonzero;fill:url(#radial1);" d="M 4.09375 19.273438 L 2.273438 19.273438 L 2.273438 20.183594 L 4.09375 20.183594 Z M 4.09375 19.273438 "/>
<path style=" stroke:none;fill-rule:nonzero;fill:url(#radial2);" d="M 4.09375 19.273438 L 2.273438 19.273438 L 2.273438 18.363281 L 4.09375 18.363281 Z M 4.09375 19.273438 "/>
<path style=" stroke:none;fill-rule:nonzero;fill:url(#radial3);" d="M 17.738281 19.273438 L 19.554688 19.273438 L 19.554688 20.183594 L 17.738281 20.183594 Z M 17.738281 19.273438 "/>
<path style=" stroke:none;fill-rule:nonzero;fill:url(#linear1);" d="M 3.183594 1.992188 L 18.648438 1.992188 C 19.148438 1.992188 19.554688 2.398438 19.554688 2.902344 L 19.554688 18.363281 C 19.554688 18.867188 19.148438 19.273438 18.648438 19.273438 L 3.183594 19.273438 C 2.679688 19.273438 2.273438 18.867188 2.273438 18.363281 L 2.273438 2.902344 C 2.273438 2.398438 2.679688 1.992188 3.183594 1.992188 Z M 3.183594 1.992188 "/>
<path style=" stroke:none;fill-rule:nonzero;fill:rgb(0%,0%,0%);fill-opacity:0.0784314;" d="M 9.195312 10.632812 L 2.375 17.453125 L 2.273438 17.453125 L 2.273438 18.363281 C 2.273438 18.867188 2.679688 19.273438 3.183594 19.273438 L 18.648438 19.273438 C 19.152344 19.273438 19.554688 18.867188 19.554688 18.363281 L 19.554688 17.453125 L 19.457031 17.453125 L 12.636719 10.632812 L 11.558594 11.707031 C 11.203125 12.066406 10.628906 12.066406 10.273438 11.707031 Z M 9.195312 10.632812 "/>
<path style=" stroke:none;fill-rule:nonzero;fill:rgb(90.196079%,90.196079%,90.196079%);fill-opacity:0.392157;" d="M 3.183594 2.058594 C 2.679688 2.058594 2.273438 2.460938 2.273438 2.964844 L 2.273438 3.082031 C 2.273438 2.578125 2.679688 2.167969 3.183594 2.171875 L 18.648438 2.171875 C 19.152344 2.167969 19.554688 2.578125 19.554688 3.082031 L 19.554688 2.964844 C 19.554688 2.460938 19.152344 2.058594 18.648438 2.058594 Z M 3.183594 2.058594 "/>
<path style=" stroke:none;fill-rule:nonzero;fill:rgb(0%,0%,0%);fill-opacity:0.196078;" d="M 3.183594 19.207031 C 2.679688 19.207031 2.273438 18.800781 2.273438 18.296875 L 2.273438 18.183594 C 2.273438 18.6875 2.679688 19.09375 3.183594 19.09375 L 18.648438 19.09375 C 19.152344 19.09375 19.554688 18.6875 19.554688 18.183594 L 19.554688 18.296875 C 19.554688 18.800781 19.152344 19.207031 18.648438 19.207031 Z M 3.183594 19.207031 "/>
<path style=" stroke:none;fill-rule:nonzero;fill:rgb(100%,100%,100%);fill-opacity:0.117647;" d="M 3.183594 1.992188 C 2.679688 1.992188 2.273438 2.398438 2.273438 2.902344 L 2.273438 3.808594 L 2.375 3.808594 L 10.273438 11.707031 C 10.628906 12.066406 11.203125 12.066406 11.558594 11.707031 L 19.457031 3.808594 L 19.554688 3.808594 L 19.554688 2.902344 C 19.554688 2.398438 19.152344 1.992188 18.648438 1.992188 Z M 3.183594 1.992188 "/>
<path style="fill:none;stroke-width:3;stroke-linecap:round;stroke-linejoin:miter;stroke:rgb(12.941177%,12.941177%,12.941177%);stroke-opacity:1;stroke-miterlimit:4;" d="M 74.083834 -168.640791 L 433.958559 -168.640791 C 445.593812 -168.640791 455.047454 -159.187148 455.047454 -147.460995 L 455.047454 212.322829 C 455.047454 224.048982 445.593812 233.502625 433.958559 233.502625 L 74.083834 233.502625 C 62.357682 233.502625 52.904039 224.048982 52.904039 212.322829 L 52.904039 -147.460995 C 52.904039 -159.187148 62.357682 -168.640791 74.083834 -168.640791 Z M 74.083834 -168.640791 " transform="matrix(0.0429729,0,0,0.0429729,0,9.239163)"/>
<path style=" stroke:none;fill-rule:nonzero;fill:url(#linear2);" d="M 8.414062 4.921875 C 8.070312 4.921875 7.777344 5.167969 7.71875 5.503906 L 7.03125 9.269531 L 10.039062 9.269531 L 10.210938 8.3125 C 10.296875 7.8125 10.921875 7.523438 11.269531 7.824219 L 12.96875 10.171875 C 13.105469 10.289062 13.160156 10.476562 13.121094 10.675781 C 13.082031 10.859375 12.964844 11.035156 12.796875 11.144531 L 10.269531 13.488281 C 9.816406 13.789062 9.292969 13.503906 9.382812 13.003906 L 9.550781 12.046875 L 6.527344 12.046875 L 5.898438 15.507812 C 5.820312 15.941406 6.152344 16.34375 6.59375 16.34375 L 10.265625 16.34375 C 13.417969 16.34375 15.976562 13.785156 15.976562 10.632812 C 15.976562 7.480469 13.417969 4.921875 10.265625 4.921875 Z M 8.414062 4.921875 "/>
<path style=" stroke:none;fill-rule:nonzero;fill:rgb(100%,100%,100%);fill-opacity:0.392157;" d="M 8.414062 4.921875 C 8.070312 4.921875 7.777344 5.167969 7.71875 5.503906 L 7.03125 9.269531 L 7.089844 9.269531 L 7.71875 5.808594 C 7.777344 5.472656 8.070312 5.226562 8.414062 5.226562 L 10.265625 5.226562 C 13.367188 5.226562 15.894531 7.703125 15.972656 10.785156 C 15.976562 10.734375 15.976562 10.683594 15.976562 10.632812 C 15.976562 7.480469 13.417969 4.921875 10.265625 4.921875 Z M 13.113281 10.707031 C 13.070312 10.882812 12.953125 11.039062 12.796875 11.144531 L 10.269531 13.488281 C 9.898438 13.734375 9.484375 13.589844 9.390625 13.257812 L 9.382812 13.308594 C 9.292969 13.808594 9.816406 14.09375 10.269531 13.792969 L 12.796875 11.449219 C 12.964844 11.339844 13.082031 11.164062 13.121094 10.980469 C 13.140625 10.882812 13.136719 10.792969 13.113281 10.707031 Z M 6.527344 12.046875 L 5.898438 15.507812 C 5.878906 15.605469 5.882812 15.699219 5.902344 15.785156 L 6.527344 12.351562 L 9.496094 12.351562 L 9.550781 12.046875 Z M 6.527344 12.046875 "/>
<path style=" stroke:none;fill-rule:nonzero;fill:rgb(0%,0%,0%);fill-opacity:0.235294;" d="M 10.929688 7.703125 C 10.613281 7.703125 10.273438 7.953125 10.210938 8.3125 L 10.039062 9.269531 L 7.117188 9.269531 L 7.03125 9.722656 L 10.039062 9.722656 L 10.210938 8.765625 C 10.296875 8.265625 10.921875 7.980469 11.269531 8.28125 L 12.96875 10.625 C 13.019531 10.671875 13.058594 10.726562 13.085938 10.789062 C 13.101562 10.75 13.113281 10.710938 13.121094 10.675781 C 13.160156 10.476562 13.105469 10.289062 12.96875 10.171875 L 11.269531 7.824219 C 11.171875 7.742188 11.050781 7.703125 10.929688 7.703125 Z M 15.972656 10.859375 C 15.851562 13.90625 13.339844 16.34375 10.265625 16.34375 L 6.59375 16.34375 C 6.273438 16.34375 6.007812 16.128906 5.917969 15.847656 L 5.898438 15.964844 C 5.820312 16.398438 6.152344 16.796875 6.59375 16.796875 L 10.265625 16.796875 C 13.417969 16.796875 15.976562 14.238281 15.976562 11.085938 C 15.976562 11.011719 15.972656 10.933594 15.972656 10.859375 Z M 9.46875 12.503906 L 9.382812 13.003906 C 9.363281 13.117188 9.375 13.21875 9.410156 13.308594 L 9.550781 12.503906 Z M 9.46875 12.503906 "/>
<path style="fill:none;stroke-width:11.338583;stroke-linecap:round;stroke-linejoin:round;stroke:rgb(12.941177%,12.941177%,12.941177%);stroke-opacity:1;stroke-miterlimit:4;" d="M 740.029584 432.886386 C 709.796249 432.886386 684.029203 454.530706 678.875793 484.076919 L 618.409123 815.269361 L 882.950804 815.269361 L 898.067471 731.097008 C 905.625805 687.121248 960.595505 661.697762 991.172401 688.15193 L 1140.621272 894.631865 C 1152.645894 904.938684 1157.455743 921.429594 1154.020136 938.951186 C 1150.58453 955.098535 1140.277711 970.558763 1125.504605 980.178461 L 903.220881 1186.314835 C 863.367848 1212.769003 817.330725 1187.689078 825.232619 1143.713318 L 840.005726 1059.540965 L 574.089803 1059.540965 L 518.776542 1363.935678 C 511.90533 1402.070907 541.107983 1437.457651 579.930334 1437.457651 L 902.87732 1437.457651 C 1180.130744 1437.457651 1405.162953 1212.425443 1405.162953 935.172019 C 1405.162953 657.918595 1180.130744 432.886386 902.87732 432.886386 Z M 740.029584 432.886386 " transform="matrix(0.0113699,0,0,0.0113699,0,0)"/>
</g>
</svg>
